svg/fluentui-system-icons/ic_fluent_animal_rabbit_32_filled.svg

<svg width="32" height="32" viewBox="0 0 32 32" fill="none" xmlns="http://www.w3.org/2000/svg">
<path d="M16.3368 4.9174C17.5191 3.69448 19.4803 3.69717 20.6593 4.92332L27.8322 12.3831C29.155 13.4822 30 15.1428 30 17C30 20.2785 27.3704 22.9429 24.1053 22.9991V23.0004C24.1053 25.2096 22.3144 27.0004 20.1053 27.0004H18C18 27.0004 18 27.0004 18 27.0004V24.5004C18 22.0151 15.9853 20.0004 13.5 20.0004H12C11.4477 20.0004 11 20.4481 11 21.0004C11 21.5527 11.4477 22.0004 12 22.0004H13.5C14.8807 22.0004 16 23.1197 16 24.5004V27.0004C16 27.0004 16 27.0004 16 27.0004L11 27.0004C8.23858 27.0004 6 24.7618 6 22.0004V19.9004C3.71776 19.4371 2 17.4193 2 15.0004C2 12.2389 4.23858 10.0004 7 10.0004C8.63694 10.0004 10.0891 10.7874 11.0003 12.0004H17.5995C17.7351 11.7351 17.8914 11.4823 18.0664 11.2443L16.1624 8.89416C15.2071 7.71502 15.2819 6.00841 16.3368 4.9174Z" fill="#212121"/>
</svg>

<svg xmlns="http://www.w3.org/2000/svg" width="32" height="32"><path d="M16.337 4.917a3.002 3.002 0 0 1 4.322.006l7.173 7.46A6 6 0 0 1 24.105 23a4 4 0 0 1-4 4H18v-2.5a4.5 4.5 0 0 0-4.5-4.5H12a1 1 0 1 0 0 2h1.5a2.5 2.5 0 0 1 2.5 2.5V27h-5a5 5 0 0 1-5-5v-2.1A5.002 5.002 0 0 1 7 10a4.99 4.99 0 0 1 4 2h6.6c.135-.265.291-.518.466-.756l-1.904-2.35a3.002 3.002 0 0 1 .175-3.977Z"/></svg>
